X:1
T:The Gal thet Got Stuck
M:4/4
L:1/8
K:C
 G2| cc c2 BB B2| A2 AG-G G G2| B B2A-A A A2| A3 A G2 G2| G G2 GG G G2|\
 F D2 D- D2 D2| D3/2 D/2 D2 DD GG| E2 C2 C2||
